icons/night/typescript.svg

<svg width="16" height="16" viewBox="0 0 16 16" fill="none" xmlns="http://www.w3.org/2000/svg">
<path fill-rule="evenodd" clip-rule="evenodd" d="M3 3C2.73478 3 2.48043 3.10536 2.29289 3.29289C2.10536 3.48043 2 3.73478 2 4V12C2 12.2652 2.10536 12.5196 2.29289 12.7071C2.48043 12.8946 2.73478 13 3 13H13C13.2652 13 13.5196 12.8946 13.7071 12.7071C13.8946 12.5196 14 12.2652 14 12V4C14 3.73478 13.8946 3.48043 13.7071 3.29289C13.5196 3.10536 13.2652 3 13 3H3ZM4.302 6.252V7.207H5.764V11.504H6.774V7.207H8.236V6.252H4.302ZM11.159 6.261C10.9659 6.21829 10.7687 6.19716 10.571 6.198C10.2075 6.1829 9.84461 6.24105 9.504 6.369C9.228 6.48 8.994 6.672 8.834 6.919C8.664 7.189 8.582 7.502 8.594 7.819C8.572 8.139 8.659 8.456 8.843 8.72C8.997 8.92 9.208 9.07 9.449 9.152C9.747 9.255 10.055 9.324 10.369 9.36H10.442L10.938 9.468C11.06 9.498 11.171 9.56 11.26 9.648C11.302 9.69217 11.3343 9.74458 11.355 9.8019C11.3756 9.85922 11.3841 9.92021 11.38 9.981C11.3835 10.0773 11.3593 10.1727 11.3104 10.2558C11.2615 10.3389 11.1899 10.4062 11.104 10.45C10.8689 10.5719 10.6053 10.6278 10.341 10.612C10.056 10.612 9.774 10.566 9.504 10.477C9.24592 10.3935 9.00601 10.2619 8.797 10.089L8.328 10.909C8.503 11.049 8.694 11.166 8.898 11.26C9.119 11.358 9.35 11.434 9.588 11.486C9.836 11.532 10.088 11.556 10.341 11.557C10.718 11.567 11.093 11.503 11.444 11.368C11.728 11.264 11.972 11.075 12.142 10.828C12.318 10.56 12.402 10.245 12.382 9.928C12.4 9.628 12.319 9.331 12.152 9.08C12.0105 8.8771 11.8122 8.72055 11.582 8.63C11.3085 8.52405 11.0251 8.44566 10.736 8.396H10.607C10.4209 8.3618 10.2369 8.31672 10.056 8.261C9.9329 8.2293 9.82127 8.16343 9.734 8.071C9.68761 8.02362 9.65143 7.96722 9.62769 7.9053C9.60396 7.84338 9.59317 7.77725 9.596 7.711C9.5961 7.62479 9.62031 7.54034 9.66591 7.46717C9.7115 7.39401 9.77665 7.33506 9.854 7.297C10.0756 7.18456 10.3228 7.13183 10.571 7.144C10.793 7.144 11.014 7.184 11.223 7.261C11.45 7.343 11.666 7.452 11.866 7.585L12.299 6.747C11.9515 6.51736 11.5653 6.35269 11.159 6.261Z" fill="#27A1B9"/>
</svg>

<svg xmlns="http://www.w3.org/2000/svg" fill="none" viewBox="0 0 16 16"><path
    fill="#27a1b9"
    fill-rule="evenodd"
    d="M3 3a1 1 0 0 0-1 1v8a1 1 0 0 0 1 1h10a1 1 0 0 0 1-1V4a1 1 0 0 0-1-1H3Zm1.302 3.252v.955h1.462v4.297h1.01V7.207h1.462v-.955H4.302Zm6.857.009a2.67 2.67 0 0 0-.588-.063 2.714 2.714 0 0 0-1.067.171c-.276.111-.51.303-.67.55-.17.27-.252.583-.24.9-.022.32.065.637.249.901.154.2.365.35.606.432.298.103.606.172.92.208h.073l.496.108c.122.03.233.092.322.18a.44.44 0 0 1 .12.333.506.506 0 0 1-.276.469 1.467 1.467 0 0 1-.763.162c-.285 0-.567-.046-.837-.135a2.145 2.145 0 0 1-.707-.388l-.469.82c.175.14.366.257.57.351.221.098.452.174.69.226.248.046.5.07.753.071.377.01.752-.054 1.103-.189.284-.104.528-.293.698-.54.176-.268.26-.583.24-.9.018-.3-.063-.597-.23-.848a1.255 1.255 0 0 0-.57-.45 4.408 4.408 0 0 0-.846-.234h-.129a4.845 4.845 0 0 1-.551-.135.674.674 0 0 1-.322-.19.485.485 0 0 1-.138-.36.462.462 0 0 1 .258-.414 1.43 1.43 0 0 1 .717-.153c.222 0 .443.04.652.117.227.082.443.191.643.324l.433-.838a3.442 3.442 0 0 0-1.14-.486Z"
    clip-rule="evenodd"
  /></svg>
